X:81
T:Lucy Campbell's Delight. RH.081
R:Reel
S:Rev.R.Harrison's MS,c1815,Cumbria
O:England
A:Temple Sowerby,Cumbria
Z:vmp.Simon Wilson. Review PJH, 2008.
M:C|
L:1/8
Q:1/2=80
K:D
B|ADAF ADAF|ADAF BEEF|ADAF defe|dBAF ADD:|!
|:f|dBAF defe|dBAF eEEe|dBAF defe|dBAF ADD:|!
|:B|AD AG/F/ AD AG/F/|AD AG/F/ BEEF|\
AD AG/F/ defe|dBAF ADD:|!
|:f|dfAf dfAf|dfAf eEEe|dfAf defe|dBAF ADD:|!
|:A|A,D FE/D/ AD FE/D/|A,D FE/D/ BEEF|\
A,D FE/D/ ADFA|dBAF ADD:|!
|:f|abaf defd|efde eEEe|abaf defe|dBAF ADD:|

